X:139
T:Paddy Quigley's Barndance*
B:NFID.092b ("untitled barndance")
139paddy_q
S:JD
N:The source has an eight-measure section labelled "Last" after the
tune - I'm not sure how it fits in with the rest of the tune, so I've
included it here and in the MIDI file exactly as the source has it.
L:1/8
M:C
R:hornpipe % A-B-A from segno to |dBAB G4| which replaces 2nd ending
Q:280
K:G
d3c|:"^segno"B2BA Bdge|d2de dBGA|B2BA Bdge|1 dBAB G2 G>c:|\
[2 dBAB G2ef||
gfed edBd|gfed e3f|gfed efge|dBAB G2ef|
gfed edBd|gfed e2ef|gabg efge|dge^c dBGA||
"LAST" B2BA Bage|d2eB dBGA|B2BA Bdge|dBAB d2G,A,|
B,2B,A, B,DGE|B,DEB, DB,G,A,|B,2B,A, B,DGE|DB,A,B, G,4|[g2B2]z2z4||

%%%

